new_frontend/public/assets/logo-text.svg

<svg width="86" height="18" viewBox="0 0 86 18" fill="none" xmlns="http://www.w3.org/2000/svg">
<path d="M16.1233 1.83636V17H13.636V6.61455L9.01059 17H7.28696L2.63969 6.61455V17H0.152412V1.83636H2.83605L8.15969 13.7273L13.4615 1.83636H16.1233ZM22.207 17.1964C21.1888 17.1964 20.2943 16.9855 19.5234 16.5636C18.7525 16.1418 18.1488 15.5455 17.7125 14.7745C17.2907 14.0036 17.0797 13.1236 17.0797 12.1345C17.0797 10.7818 17.3925 9.54545 18.0179 8.42545C18.6579 7.30545 19.5307 6.41818 20.6361 5.76364C21.7561 5.10909 22.9997 4.78182 24.367 4.78182C25.3852 4.78182 26.287 5 27.0725 5.43636C27.8579 5.85818 28.4688 6.45454 28.9052 7.22545C29.3561 7.98182 29.5816 8.86182 29.5816 9.86545C29.5816 11.2182 29.2543 12.4545 28.5997 13.5745C27.9452 14.6945 27.0579 15.5818 25.9379 16.2364C24.8179 16.8764 23.5743 17.1964 22.207 17.1964ZM22.5125 15.1018C23.3416 15.1018 24.0979 14.8691 24.7816 14.4036C25.4797 13.9236 26.0252 13.2982 26.4179 12.5273C26.8107 11.7418 27.007 10.9055 27.007 10.0182C27.007 9.01454 26.7234 8.24364 26.1561 7.70545C25.5888 7.15273 24.8761 6.87636 24.0179 6.87636C23.1743 6.87636 22.4179 7.11636 21.7488 7.59636C21.0943 8.06182 20.5779 8.69455 20.1997 9.49455C19.8361 10.28 19.6543 11.1236 19.6543 12.0255C19.6543 13 19.9161 13.7564 20.4397 14.2945C20.9779 14.8327 21.6688 15.1018 22.5125 15.1018ZM29.8585 10.9345C29.8585 9.72727 30.1058 8.65818 30.6004 7.72727C31.1095 6.79636 31.7931 6.07636 32.6513 5.56727C33.524 5.04364 34.4913 4.78182 35.5531 4.78182C36.3385 4.78182 37.1095 4.95636 37.8658 5.30545C38.6367 5.64 39.2476 6.09091 39.6985 6.65818V0.854545H42.2076V17H39.6985V15.1891C39.2913 15.7709 38.724 16.2509 37.9967 16.6291C37.284 17.0073 36.4622 17.1964 35.5313 17.1964C34.484 17.1964 33.524 16.9345 32.6513 16.4109C31.7931 15.8727 31.1095 15.1309 30.6004 14.1855C30.1058 13.2255 29.8585 12.1418 29.8585 10.9345ZM39.6985 10.9782C39.6985 10.1491 39.524 9.42909 39.1749 8.81818C38.8404 8.20727 38.3967 7.74182 37.844 7.42182C37.2913 7.10182 36.6949 6.94182 36.0549 6.94182C35.4149 6.94182 34.8185 7.10182 34.2658 7.42182C33.7131 7.72727 33.2622 8.18545 32.9131 8.79636C32.5785 9.39273 32.4113 10.1055 32.4113 10.9345C32.4113 11.7636 32.5785 12.4909 32.9131 13.1164C33.2622 13.7418 33.7131 14.2218 34.2658 14.5564C34.8331 14.8764 35.4295 15.0364 36.0549 15.0364C36.6949 15.0364 37.2913 14.8764 37.844 14.5564C38.3967 14.2364 38.8404 13.7709 39.1749 13.16C39.524 12.5345 39.6985 11.8073 39.6985 10.9782ZM43.3364 10.9782C43.3364 9.74182 43.5837 8.65818 44.0782 7.72727C44.5873 6.78182 45.2855 6.05454 46.1728 5.54545C47.06 5.03636 48.0782 4.78182 49.2273 4.78182C50.6818 4.78182 51.8818 5.13091 52.8273 5.82909C53.7873 6.51273 54.4346 7.49454 54.7691 8.77455H52.0855C51.8673 8.17818 51.5182 7.71273 51.0382 7.37818C50.5582 7.04364 49.9546 6.87636 49.2273 6.87636C48.2091 6.87636 47.3946 7.24 46.7837 7.96727C46.1873 8.68 45.8891 9.68364 45.8891 10.9782C45.8891 12.2727 46.1873 13.2836 46.7837 14.0109C47.3946 14.7382 48.2091 15.1018 49.2273 15.1018C50.6673 15.1018 51.62 14.4691 52.0855 13.2036H54.7691C54.42 14.4255 53.7655 15.4 52.8055 16.1273C51.8455 16.84 50.6528 17.1964 49.2273 17.1964C48.0782 17.1964 47.06 16.9418 46.1728 16.4327C45.2855 15.9091 44.5873 15.1818 44.0782 14.2509C43.5837 13.3055 43.3364 12.2145 43.3364 10.9782ZM60.1497 0.854545L57.2915 17H54.8042L57.6624 0.854545H60.1497ZM71.2698 4.97818V17H68.7825V15.5818C68.3898 16.0764 67.8734 16.4691 67.2334 16.76C66.608 17.0364 65.9389 17.1745 65.2262 17.1745C64.2807 17.1745 63.4298 16.9782 62.6734 16.5855C61.9316 16.1927 61.3425 15.6109 60.9062 14.84C60.4843 14.0691 60.2734 13.1382 60.2734 12.0473V4.97818H62.7389V11.6764C62.7389 12.7527 63.008 13.5818 63.5462 14.1636C64.0843 14.7309 64.8189 15.0145 65.7498 15.0145C66.6807 15.0145 67.4153 14.7309 67.9534 14.1636C68.5062 13.5818 68.7825 12.7527 68.7825 11.6764V4.97818H71.2698ZM75.7297 6.76727C76.1516 6.18545 76.7261 5.71273 77.4534 5.34909C78.1952 4.97091 79.017 4.78182 79.9188 4.78182C80.9807 4.78182 81.9407 5.03636 82.7988 5.54545C83.657 6.05454 84.3334 6.78182 84.8279 7.72727C85.3225 8.65818 85.5697 9.72727 85.5697 10.9345C85.5697 12.1418 85.3225 13.2255 84.8279 14.1855C84.3334 15.1309 83.6497 15.8727 82.777 16.4109C81.9188 16.9345 80.9661 17.1964 79.9188 17.1964C78.9879 17.1964 78.1588 17.0145 77.4316 16.6509C76.7188 16.2873 76.1516 15.8218 75.7297 15.2545V17H73.2425V0.854545H75.7297V6.76727ZM83.0388 10.9345C83.0388 10.1055 82.8643 9.39273 82.5152 8.79636C82.1807 8.18545 81.7297 7.72727 81.1625 7.42182C80.6097 7.10182 80.0134 6.94182 79.3734 6.94182C78.7479 6.94182 78.1516 7.10182 77.5843 7.42182C77.0316 7.74182 76.5807 8.20727 76.2316 8.81818C75.897 9.42909 75.7297 10.1491 75.7297 10.9782C75.7297 11.8073 75.897 12.5345 76.2316 13.16C76.5807 13.7709 77.0316 14.2364 77.5843 14.5564C78.1516 14.8764 78.7479 15.0364 79.3734 15.0364C80.0134 15.0364 80.6097 14.8764 81.1625 14.5564C81.7297 14.2218 82.1807 13.7418 82.5152 13.1164C82.8643 12.4909 83.0388 11.7636 83.0388 10.9345Z" fill="white"/>
</svg>

<svg width="86" height="18" fill="none" xmlns="http://www.w3.org/2000/svg"><path d="M16.123 1.836V17h-2.487V6.615L9.011 17H7.287L2.64 6.615V17H.152V1.836h2.684L8.16 13.727l5.301-11.89h2.662zm6.084 15.36c-1.018 0-1.913-.21-2.684-.632a4.558 4.558 0 0 1-1.81-1.79c-.422-.77-.633-1.65-.633-2.64 0-1.352.313-2.589.938-3.709a7.183 7.183 0 0 1 2.618-2.661c1.12-.655 2.364-.982 3.731-.982 1.018 0 1.92.218 2.706.654a4.522 4.522 0 0 1 1.832 1.79c.451.756.677 1.636.677 2.64 0 1.352-.328 2.588-.982 3.709a7.3 7.3 0 0 1-2.662 2.661c-1.12.64-2.364.96-3.731.96zm.305-2.094c.83 0 1.586-.233 2.27-.698a4.982 4.982 0 0 0 1.636-1.877c.393-.785.589-1.621.589-2.509 0-1.003-.284-1.774-.85-2.313-.568-.552-1.28-.829-2.14-.829-.843 0-1.6.24-2.268.72-.655.466-1.171 1.099-1.55 1.899a5.951 5.951 0 0 0-.545 2.53c0 .975.262 1.731.786 2.27.538.538 1.229.807 2.072.807zm7.346-4.168c0-1.207.248-2.276.742-3.207a5.533 5.533 0 0 1 4.953-2.945c.785 0 1.556.174 2.313.523.77.335 1.382.786 1.833 1.353V.855h2.509V17h-2.51v-1.81c-.407.58-.974 1.06-1.701 1.44-.713.377-1.535.566-2.466.566a5.493 5.493 0 0 1-2.88-.785c-.858-.538-1.542-1.28-2.05-2.226-.495-.96-.742-2.043-.742-3.25zm9.84.044c0-.829-.174-1.549-.523-2.16-.335-.61-.778-1.076-1.331-1.396a3.51 3.51 0 0 0-1.79-.48c-.64 0-1.236.16-1.788.48-.553.305-1.004.763-1.353 1.374-.334.597-.502 1.31-.502 2.139 0 .829.167 1.556.502 2.181.35.626.8 1.106 1.353 1.44a3.59 3.59 0 0 0 1.789.48c.64 0 1.236-.16 1.789-.48.553-.32.996-.785 1.33-1.396.35-.626.525-1.353.525-2.182zm3.638 0c0-1.236.248-2.32.742-3.25.51-.946 1.207-1.673 2.095-2.183.887-.509 1.905-.763 3.054-.763 1.455 0 2.655.349 3.6 1.047.96.684 1.608 1.666 1.942 2.946h-2.683c-.219-.597-.568-1.062-1.048-1.397-.48-.334-1.083-.502-1.81-.502-1.019 0-1.833.364-2.444 1.091-.597.713-.895 1.717-.895 3.011 0 1.295.298 2.306.895 3.033.61.727 1.425 1.09 2.443 1.09 1.44 0 2.393-.632 2.859-1.897h2.683c-.349 1.221-1.003 2.196-1.963 2.923-.96.713-2.153 1.07-3.579 1.07-1.149 0-2.167-.255-3.054-.764a5.599 5.599 0 0 1-2.095-2.182c-.494-.945-.742-2.037-.742-3.273zM60.15.855 57.292 17h-2.488L57.662.855h2.488zm11.12 4.123V17h-2.487v-1.418c-.393.494-.91.887-1.55 1.178a4.91 4.91 0 0 1-2.007.414c-.945 0-1.796-.196-2.553-.588-.741-.393-1.33-.975-1.767-1.746-.422-.77-.633-1.702-.633-2.793V4.978h2.466v6.698c0 1.077.269 1.906.807 2.488.538.567 1.273.85 2.204.85.93 0 1.665-.283 2.203-.85.553-.582.83-1.411.83-2.488V4.978h2.487zm4.46 1.79c.422-.583.996-1.055 1.723-1.419.742-.378 1.564-.567 2.466-.567 1.062 0 2.022.254 2.88.763.858.51 1.534 1.237 2.029 2.182.495.931.742 2 .742 3.207 0 1.208-.247 2.292-.742 3.252a5.613 5.613 0 0 1-2.051 2.225 5.38 5.38 0 0 1-2.858.785c-.931 0-1.76-.181-2.487-.545-.713-.364-1.28-.83-1.702-1.396V17h-2.487V.855h2.487v5.912zm7.309 4.167c0-.83-.175-1.542-.524-2.139-.334-.61-.785-1.069-1.353-1.374a3.51 3.51 0 0 0-1.789-.48c-.625 0-1.221.16-1.789.48-.552.32-1.003.785-1.352 1.396-.335.611-.502 1.331-.502 2.16 0 .83.167 1.556.502 2.182.349.61.8 1.076 1.352 1.396.568.32 1.164.48 1.79.48.64 0 1.236-.16 1.788-.48.568-.334 1.019-.814 1.353-1.44.35-.625.524-1.352.524-2.181z" fill="#fff"/></svg>
